X: 15141
T: I'll never leave thee
%R: air, minuet
B: James Oswald "The Caledonian Pocket Companion" v.1 b.5 p.14 #1
S: https://ia800501.us.archive.org/18/items/caledonianpocket01rugg/caledonianpocket01rugg_bw.pdf
Z: 2020 John Chambers <jc:trillian.mit.edu>
M: 3/4
L: 1/8
K: D
%%slurgraces 1
%%graceslurs 1
|: "_Slow"\
D>E F2 (F/G/A) | {G}F3 D (F/E/D) | E2 (d<B) (A<F) | {F}TE4 D2 |\
D>E F2 (F/G/A) | {G}TF3E (F/E/D) | (EF) (dB) (AF) | {F}TE4 D2 :|
|:\
d3 c (B/c/d) | {c}B3 A F2 | {B}A2 (GF)(ED) | d3 e {de}f2 |\
B2 (AB) (Fd) | (BA)(GF)(ED) | (EF) (dB) (AF) | TE3 (D/E/) D2 ::\
(DE)(FG)(AB) |
{B}A2 (GF)(ED) | (dc)(BA)(GF) | {F}TE4 F2 |\
G3 A (B/c/d) | {B}A2 (GF)(ED) | (d3/c//B//) (AB) (DG) | ({F}E4 {DE}D2) ::\
d4 (3(fed) |
{d}c4 (3(edc) | B3A (B/A/F) | d3 e (d/e/f) |\
B(B/d/) A(A/B/) Fd | {B}A2 (GF)(ED) | (E/D/E/F/) d>B (c/B/A/F/) | {DF}TE4 D2 ::\
D>E F2 (F/E/F/d/) |
A>B (d/B/A/F/) TED | E>F (3(GFd) (3(BAG) | {F}E4 D2 |\
D>E (F/E/F/A/) Bd | (A<F)(A<F)(TE<D) | f>e (f/e/d/B/) (d/B/A/F/) | {F}TE4 D2 :|
|:\
d3 c (B/c/d) | {cd}e2 (dc)(BA) | B(A/F/) (A/F/E/D/) (E/D/E/F/) | d3 e (f/e/d) |\
B(A/B/) d(B/A/) FB | {B}TA3 F TE>D | EF d>B (d/B/A/F/) | {F}TE4 D2 :| 
